!!!!SEGMENT: pl-wnifc--13846--001-064_anonim--piesni-polskie-i-ruskie-ludu-galicyjskiego-64-gdybys-byla-nie-kumecka.krn
!!!kernsource:
!!!cenid: 18xx:3286
!!!COM: Anonim
!!!COM-rismID: pe30004985
!!!CDT:
!!!CNT:
!!!GTL: Pieśni polskie i ruskie ludu galicyjskiego
!!!OTL: 64. Gdybyś była nie kumecka
!!!OMV: 064
!!!PDT: 1833
!!!AGN:
!!!SMS-siglum: PL-Wnifc
!!!SMS-shelfmark: 13846
!!!SMS-shelfwork: 001-064 G
!!!NIFC-rismSourceID: 1001036701
!!!NIFC-rismChildID: 1001037175
!!!NIFC-islandoraID: nifc:210326
!!!URL-pdf-islandora: https://repozytorium.nifc.pl/islandora/object/nifc%3A210326/datastream/PDF/view
!!!URL-scan:
!!!IIIF:
!!!ONB-nifc:
!!!AIN: 1 piano 1 vox
!!!key: G
!!!OMD: Mazur
**kern	**kern	**kern	**text	**text
*part2	*part2	*part1	*part1	*part1
*staff3	*staff2	*staff1	*staff1	*staff1
*I"FORTEPIAN.	*I"FORTEPIAN.	*I"GŁOS.	*	*
*Ipiano	*Ipiano	*Ivox	*	*
*ICklav	*ICklav	*ICvox	*	*
*IGacmp	*IGacmp	*IGsolo	*	*
*>[A,A,B]	*>[A,A,B]	*>[A,A,B]	*>[A,A,B]	*>[A,A,B]
*>A	*>A	*>A	*>A	*>A
*clefF4	*clefG2	*clefG2	*	*
*k[f#]	*k[f#]	*k[f#]	*	*
*G:	*G:	*G:	*	*
*M3/8	*M3/8	*M3/8	*	*
=1-	=1-	=1-	=1-	=1-
*^	*	*	*	*
!	!	!	!LO:TX:a:t=D.c.8.	!	!
8GG/L	4.GG\	16g\LL	16g/	Gdy-	pro-
.	.	16a\JJ 16f#\	16a/	-byś	-sił
8G/	.	8b\L 8g\	8b\	by-	bym
8G/J	.	8cc\J 8a\	8cc\	-ła	cię
=2	=2	=2	=2	=2	=2
8GG/L	4.GG\	16dd\LL 16b\	16dd\	nie	do
.	.	16cc#X\JJ 16a#X\	16cc#X\	ku-	łó
8G/	.	8ee\L 8ccn\	8ee\	-mec-	zec-
8G/J	.	8dd\J 8b\	8dd\	-ka	-ka
=3	=3	=3	=3	=3	=3
8GG/L	4.GG\	8.dd\L 8.b\	(8.dd\L	hej,	hej,
8G/	.	.	.	.	.
.	.	16b\Jk 16g\	16b\Jk)	.	.
8G/J	.	(16.gg\LL 16.ee\	(16.gg\LL	hej,	hej,
.	.	32ee\JJk 32cc\)	32ee\JJk)	.	.
!!LO:LB:g=original
=4	=4	=4	=4	=4	=4
8GG/L	4.GG\	16dd\LL 16b\	16dd\	nie	do
.	.	16cc#X\JJ 16a#X\	16cc#X\	ku-	łó
8G/	.	8ee\L 8ccn\	8ee\	-mec-	zec-
8G/J	.	8dd\J 8b\	8dd\	-ka	-ka
=5:|!	=5:|!	=5:|!	=5:|!	=5:|!	=5:|!
*>B	*>B	*>B	*>B	*>B	*>B
!LO:TX:t=P:problem=mixed beam	!	!	!	!	!
8DD/L	4.DD\	16ccn\LL	16ccn\	A	.
.	.	16cc\JJ	16cc\	leś	.
8c\ 8F#\ 8D\	.	8an\L	8a/	ku-	.
8c\J 8A\ 8D\	.	8f#\J	8f#/	-ma	.
=6	=6	=6	=6	=6	=6
8GG/L	4.GG\	16g/LL	16g/	wi-	.
.	.	16g/JJ	16g/	-dzi-	.
8B/ 8G/ 8D/	.	8b\L	8b\	-mi-	.
8B/J 8G/ 8D/	.	8dd\J	8dd\	-się,	.
!!LO:PB:g=original
=7	=7	=7	=7	=7	=7
8DD/L	4.DD\	8.cc\L	(8.cc\L	hej,	.
8c/ 8F#/ 8D/	.	.	.	.	.
.	.	16a\Jk	16a\Jk)	.	.
8c/J 8A/ 8D/	.	16a/LL	16a/LL	hej,	.
.	.	16f#/JJ	16f#/JJ	.	.
=8	=8	=8	=8	=8	=8
8GG/L	4.GG\	16g/LL	16g/	wi-	.
.	.	16g/JJ	16g/	-dzi-	.
8B/ 8G/ 8D/	.	8b\L	8b\	-mi-	.
8B/J 8G/ 8D/	.	8dd\J	8dd\	-się,	.
=9	=9	=9	=9	=9	=9
8DD/L	4.DD\	16cc\LL	16cc\	pro-	.
.	.	16cc\JJ	16cc\	-sić	.
8c/ 8F#/ 8D/	.	8a/L	8a\	cie-	.
8c/J 8A/ 8D/	.	16f#/L	(16f#/LL	-bie	.
.	.	16d/JJ	16d/JJ)	.	.
!!LO:LB:g=original
=10	=10	=10	=10	=10	=10
8GG/L	4.GG\	16g/LL	16g/	nie-	.
.	.	16g/JJ	16g/	-go-	.
8B/ 8G/ 8D/	.	8b\L	8b\	-dzi	.
8B/J 8G/ 8D/	.	8dd\J	8dd\	się,	.
=11	=11	=11	=11	=11	=11
8DD/L	4.DD\	8cc\	8cc\	hej,	.
8c/ 8F#/ 8D/	.	8.a/L	(8.a/L	hej,	.
8c/J 8A/ 8D/	.	.	.	.	.
.	.	16f#/Jk	16f#/Jk)	.	.
=12	=12	=12	=12	=12	=12
8GG/L	4.GG\	16g/LL	16g/	nie	.
.	.	16g/JJ	16g/	go-	.
8B/ 8G/ 8D/	.	8b\	8b/	-dzi-	.
8B/J 8G/ 8D/	.	8g/	8g/	-się	.
*v	*v	*	*	*	*
==	==	==	==	==
*-	*-	*-	*-	*-
!!!system-decoration: s1{(s2,s3)}
!!!ENC: Marta Lawrence
!!!END: 2021-11-10
!!!YEC: Copyright 2022 Narodowy Instytut Fryderyka Chopina (https://polishscores.org)
!!!YEM: License CC-BY-4.0 (https://creativecommons.org/licenses/by/4.0)
